<?xml version="1.0" encoding="UTF-8"?>
<map version="1.10" tiledversion="1.11.2" orientation="orthogonal" renderorder="right-down" compressionlevel="0" width="4" height="5" tilewidth="16" tileheight="16" infinite="0" nextlayerid="24" nextobjectid="45">
 <properties>
  <property name="BrookSounds" value=""/>
  <property name="DayTiles" value=""/>
  <property name="Fall_Objects" value=""/>
  <property name="Light" value=""/>
  <property name="NightTiles" value=""/>
  <property name="Outdoors" value="T"/>
  <property name="Spring_Objects" value=""/>
  <property name="Summer_Objects" value=""/>
  <property name="Warp" value=""/>
  <property name="Winter_Objects" value=""/>
 </properties>
 <tileset firstgid="1" name="blackMarketChao" tilewidth="16" tileheight="16" tilecount="16" columns="8">
  <image source="blackMarketChao.png" width="128" height="32"/>
  <tile id="0">
   <animation>
    <frame tileid="0" duration="750"/>
    <frame tileid="2" duration="750"/>
    <frame tileid="4" duration="750"/>
    <frame tileid="6" duration="750"/>
   </animation>
  </tile>
  <tile id="1">
   <animation>
    <frame tileid="1" duration="750"/>
    <frame tileid="3" duration="750"/>
    <frame tileid="5" duration="750"/>
    <frame tileid="7" duration="750"/>
   </animation>
  </tile>
  <tile id="8">
   <animation>
    <frame tileid="8" duration="750"/>
    <frame tileid="10" duration="750"/>
    <frame tileid="12" duration="750"/>
    <frame tileid="14" duration="750"/>
   </animation>
  </tile>
  <tile id="9">
   <animation>
    <frame tileid="9" duration="750"/>
    <frame tileid="11" duration="750"/>
    <frame tileid="13" duration="750"/>
    <frame tileid="15" duration="750"/>
   </animation>
  </tile>
 </tileset>
 <tileset firstgid="17" name="Festivals" tilewidth="16" tileheight="16" tilecount="1024" columns="32">
  <image source="Festivals" width="512" height="512"/>
 </tileset>
 <layer id="1" name="Back1" width="4" height="5">
  <data encoding="csv">
0,0,0,0,
0,0,0,0,
0,0,0,0,
0,0,0,0,
0,0,0,0
</data>
 </layer>
 <layer id="4" name="Buildings" width="4" height="5">
  <data encoding="csv">
0,0,0,0,
0,0,0,0,
0,0,0,0,
2147483775,2147483774,126,127,
2147483807,2147483806,158,159
</data>
 </layer>
 <layer id="7" name="Front" width="4" height="5">
  <data encoding="csv">
813,814,815,816,
845,846,847,848,
877,1,2,880,
0,9,10,0,
0,0,0,0
</data>
 </layer>
 <layer id="23" name="Front1" width="4" height="5">
  <data encoding="csv">
0,0,0,0,
0,0,0,0,
0,878,879,0,
0,2147483774,126,0,
0,0,0,0
</data>
 </layer>
 <layer id="20" name="Front2" width="4" height="5">
  <data encoding="csv">
0,0,0,0,
0,0,0,0,
0,0,0,0,
0,87,85,0,
0,0,0,0
</data>
 </layer>
 <layer id="21" name="Front3" width="4" height="5">
  <data encoding="csv">
0,0,0,0,
0,0,0,0,
0,0,0,0,
0,84,86,0,
0,0,0,0
</data>
 </layer>
 <objectgroup id="9" name="Back"/>
 <objectgroup id="12" name="Buildings"/>
 <objectgroup id="14" name="Paths"/>
 <objectgroup id="15" name="Front"/>
 <objectgroup id="16" name="AlwaysFront"/>
</map>
